X: 21341
T: THE PRINCE OF WALES' STRATHSPEY
R: strathspey
B: K\"ohler's Violin Repository, v.2, 1885 p.134 #1
F: http://www.archive.org/details/klersviolinrepos02rugg
Z: 2012 John Chambers <jc:trillian.mit.edu>
M: C|
L: 1/16
K: Bb
u(DE) |\
(.F3.G)(F3D) (B,2DE) (F3D) | (.F3.G)(F3D) (GF)ED C2DE |\
(.F3.G)(F3D) (.F3.G) (B3c) | (.d3.B) (ed)cB FB3B3 :|
ug |\
(.f3.B) (ed)cB (F3B)(.D3.g) | (.f3.B) (ed)cB gc3c3b |\
(.f3.B) (ed)cB (F3B)(.D3.B) | (ABc2) (F3e) dB3B3 ||
g |\
(.f3.B) (ed)cB (F3B)(.D3.g) | (.f3.B) (ed)cB gc3c3e |\
df3 eg3 df3 cd3 | (F3G) (B3c) "^Segue Reel."cB3B2 "_D.C."|]

%%sep 2 1 500

